X:1
T:[ID 1-25a]
T:[ID 1-25a]
T:Bezeichnung standardisiert: Menuett Men. In dieser Quelle auch als: Menuetto
T:Urheber unbekannt Datum in der hier transkribierten schriftlichen Quelle: vermutlich vor 1767
C:Urheber unbekannt
C:Datum in der hier transkribierten schriftlichen Quelle: vermutlich vor 1767
L:1/8
M:3/4
K:A
V:1 treble 
V:1
 Aa g2 f2 | e2 d2 c2 | Bc d2 B2 | ^GABG E2 | a2 a2 a2 | f2 ^d2 e2 | fagfed | e6 :: e2 f2 g2 | %9
 fgaf d2 | f2 g2 a2 | gabg e2 | ea g2 f2 | e2 d2 c2 | BdcBAG | A6 :| %16

